!!!COM:	Martini, Johannes
!!!CDT:	~1440///-~1497//
!!!OTL:	Des biens d'amours
!!!AGN:	Song; Chanson
!!!SCT:	Mar3004.a
!!!SCA:	Mar3004.a
!!!voices:	3
**kern	**kern	**kern
*staff3	*staff2	*staff1
*Ivox	*Ivox	*Ivox
*I"Bassus	*I"Tenor	*I"Altus
*I'B	*I'T	*I'A
*clefF4	*clefGv2	*clefG2
*k[b-]	*k[]	*k[]
*M2/1	*M2/1	*M2/1
*met(C|)	*met(C|)	*met(C|)
=1-	=1-	=1-
1D	0r	1r
1D	.	1a
=2	=2	=2
2AA/	0r	1a
1D	.	.
.	.	2d/
4C/	.	[2a/
4BB-/	.	.
=3	=3	=3
2AA/	1A	2a/]
1D	.	4g/
.	.	4f/
.	1A	1e
2C#i/	.	.
=4	=4	=4
0D	2D/	2d/
.	1A	1f
.	4G/	4e/
.	4F/	4d/
=5	=5	=5
1AA	1E	1c
1r	2D/	2d/
.	[2F/	[2a/
=6	=6	=6
1D	2F/]	2a/]
.	4E/	4g/
.	4D/	4f/
1E	2.C/	4g/
.	.	4f/
.	.	4e/
.	4D/	4d/
=7	=7	=7
2.AA/	2E/	2.c/
.	2F/	.
4BB-/	.	4d/
2C/	2E/	2e/
[2D\	[2A/	[2f/
=8	=8	=8
4D\]	2A/]	2f/]
4C/	.	.
2D\	4G/	4e/
.	4F/	4d/
1AA	1E	2.c#i/
.	.	4B/
=9	=9	=9
1A	0D	1d
1B-	.	1r
=10	=10	=10
2A\	0r	1a
1F	.	.
.	.	1b-i
2G\	.	.
=11	=11	=11
1A	1A	2a/
.	.	1f
2D\	1B-i	.
2E\	.	2g/
=12	=12	=12
2F\	2A/	1a
2.D\	1F	.
.	.	1d
4C/	.	.
2BB-/	2G/	.
=13	=13	=13
1AA	1A	1c
2r	1D	1f
[2A\	.	.
=14	=14	=14
2A\]	1C	1e
2G\	.	.
2A\	1F	1a
2F\	.	.
=15	=15	=15
1G	1E	2g/
.	.	2e/
1D	1A	1f
=16	=16	=16
2E\	2G/	2e/
2C/	2E/	1e
1D	1F	.
.	.	2d/
=17	=17	=17
2C/	2E/	1e
2AA/	1A	.
1BB-	.	1r
.	2G/	.
=18	=18	=18
2AA/	2A/	1e
1A	1c	.
.	.	1e
4G\	4B\	.
4F\	4A/	.
=19	=19	=19
2E\	2G/	0e
2AA/	1A	.
1E	.	.
.	2G/	.
=20	=20	=20
2.D\	1A	1f
4C/	.	.
2D\	2B\	2d/
[2AA/	2c\	[2e/
=21	=21	=21
2AA/]	2.A/	4e/]
.	.	4d/
2.A\	.	4c/
.	4G/	4B/
.	4F/	2c/
4G\	4E/	.
4F\	2F/	[2A/
4E\	.	.
=22	=22	=22
2F\	1D	2A/]
2D\	.	1d
1AA	1E	.
.	.	2c#i/
=23	=23	=23
2A\	2D/	2d/
2D\	2d\	2f/
2E\	2B\	2g/
2F\	2A/	[2a/
=24	=24	=24
2D\	1d	2a/]
2G\	.	2b-i\
2E\	2e\	2g/
[2D\	[2f\	[2a/
=25	=25	=25
4D\]	2f\]	2a/]
4E\	.	.
4F\	4e\	4g/
4G\	4d\	4f/
2.A\	2.c\	2.e/
4G\	4d\	4f/
=26	=26	=26
2E\	2e\	2g/
2F\	2A/	1a
1E	1B	.
.	.	2g#i/
=27	=27	=27
2.F\	2.A/	0a
4G\	4B\	.
2A\	2c\	.
2D\	2d\	.
=28	=28	=28
2C/	2e\	1r
2D\	1d	.
1A	.	1a
.	2c#i\	.
=29	=29	=29
2D\	0d	2b-i\
1F	.	1a
4E\	.	4g/
4D\	.	4f/
=30	=30	=30
2C/	1r	2e/
1D	.	2d/
.	1A	1e
2C#i/	.	.
=31	=31	=31
1D	2B-i\	2d/
.	2.A/	1f
2r	.	.
.	4G/	.
2D\	2F/	4e/
.	.	4d/
=32	=32	=32
2AA/	2E/	2c/
2BB-/	2D/	1d
1AA	1E	.
.	.	2c#i/
=33	=33	=33
2A\	2D/	2d/
2D\	1d	2f/
1A	.	1e
.	2c#i\	.
=34	=34	=34
2.B-\	1d	2d/
.	.	2f/
4A\	.	.
2G\	2e\	2g/
2F\	[2f\	[2a/
=35	=35	=35
1D	2f\]	2a/]
.	4e\	4g/
.	4d\	4f/
2r	2c\	2e/
[2C/	[2e\	[2g/
=36	=36	=36
2C/]	4e\]	4g/]
.	4d\	4f/
2D\	4c#i\	4e/
.	4B\	4d/
1A	1c#i	1e
=37	=37	=37
[0D	1.d	0d
.	4c\	.
.	4B\	.
=38	=38	=38
0D]	2A/	1r
.	1B-i	.
.	.	1d
.	4A/	.
.	4G/	.
=39	=39	=39
1r	2F/	1d
.	1G	.
1BB-	.	1d
.	4F/	.
.	4E/	.
=40	=40	=40
0BB-	2D/	0d
.	1F	.
.	2G/	.
=41	=41	=41
[0AA	2A/	0c
.	2F/	.
.	2E/	.
.	[2A/	.
=42	=42	=42
0AA]	2A/]	1c
.	4G/	.
.	4F/	.
.	2E/	1c
.	[2F/	.
=43	=43	=43
1BB-	4F/]	1d
.	4E/	.
.	2.G/	.
2C/	.	2e/
.	4F/	.
2AA/	[2A/	[2f/
=44	=44	=44
1D	2A/]	2f/]
.	4G/	4e/
.	4F/	4d/
1AA	1E	2.c#i/
.	.	4B/
=45	=45	=45
2r	2D/	0d
1A	1F	.
4G\	4E/	.
4F\	4D/	.
=46	=46	=46
2E\	2C/	0r
2D\	1D	.
1E	.	.
.	2C#i/	.
=47	=47	=47
2r	1D	1a
1D	.	.
.	1r	2b\
2E\	.	[2cc\
=48	=48	=48
1F	1A	2cc\]
.	.	4b\
.	.	4a/
2E\	2B\	2.g/
[2C/	[2c\	.
.	.	4f/
=49	=49	=49
2C/]	2c\]	1a
2D\	4B\	.
.	4A/	.
1BB-	1G	1b-i
=50	=50	=50
1AA	1A	1cc
1r	1B	1dd
=51	=51	=51
1A	1c	2cc\
.	.	2a/
1G	1d	1b
=52	=52	=52
2A\	2c\	2a/
2F\	2A/	1a
2.E\	1B	.
.	.	2g/
4D\	.	.
=53	=53	=53
2C/	2A/	2a/
2AA/	1A	1f
1BB-	.	.
.	2G/	4e/
.	.	4d/
=54	=54	=54
2.AA/	0A	2.c/
4BB-/	.	4d/
2C/	.	2e/
[2D\	.	[2f/
=55	=55	=55
2D\]	1D	2f/]
4C/	.	4e/
4BB-/	.	4d/
2AA/	2.A/	4e/
.	.	4d/
[2D\	.	4c/
.	4G/	4B/
=56	=56	=56
4D\]	2F/	2A/
4C/	.	.
2BB-/	2D/	1d
1AA	1E	.
.	.	2c#i/
=57	=57	=57
0Al	0Dl	0dl
==	==	==
*-	*-	*-
!!!RDF**kern: l=long note in original notation
!!!RDF**kern: i=editorial accidental
!!!ENC:	Chris Gage 10-30-2014
!!!END:	2015/02/26/
!!!EED:	Jesse Rodin
!!!EEV:	2015/03/05/
!!!ONB:	Translated from MusicXML and edited on 2015/03/05/ by Craig Sapp
!!muse2ps: C^@{COM}^i2I150v85,85,150Q16
